src/home/img/mongo.svg

<svg fill="none" height="40" viewBox="0 0 19 40" width="19" xmlns="http://www.w3.org/2000/svg"><path d="m18.0196 16c-2.1539-9.38462-6.6154-11.84615-7.6923-13.53846-.61543-.76923-.92312-1.692309-1.38466-2.46154 0 .769231-.15384 1.38462-.76923 2-1.53846 1.23077-7.538459 6.15385-8.1538432 16.7692-.4615388 10 7.3846132 16 8.4615332 16.6154.76923.4616 1.8462 0 2.3077-.3077 3.6923-2.6154 8.9231-9.3846 7.2308-19.0769z" fill="#fff" fill-opacity=".5"/><path d="m9.25032 30c-.3077 2.4615-.46154 3.8462-.92308 5.2308 0 0 .30769 2.3077.61538 4.7692h.76924c.30764-1.6923.61534-3.3846.92304-5.0769-1.07689-.6154-1.38458-2.7693-1.38458-4.9231z" fill="#989ca7"/><path d="m10.7888 35.0769c-1.07693-.6154-1.38462-2.9231-1.38462-4.9231.30769-3.5384.30769-7.0769.30769-10.7692-.15384-1.8461 0-17.07691-.46153-19.3846.30769.769231.61538 1.53846 1.07696 2.15385 1.0769 1.84615 5.5384 4.30769 7.6923 13.69235 1.6923 9.6923-3.3846 16.6153-7.2308 19.2307z" fill="#fff"/></svg>

<svg width="19" height="40" viewBox="0 0 19 40" fill="none" xmlns="http://www.w3.org/2000/svg">
<path d="M18.0196 16C15.8657 6.61538 11.4042 4.15385 10.3273 2.46154C9.71187 1.69231 9.40418 0.769231 8.94264 0C8.94264 0.769231 8.7888 1.38462 8.17341 2C6.63495 3.23077 0.634951 8.15385 0.0195668 18.7692C-0.441972 28.7692 7.40418 34.7692 8.4811 35.3846C9.25033 35.8462 10.3273 35.3846 10.7888 35.0769C14.4811 32.4615 19.7119 25.6923 18.0196 16Z" fill="white" fill-opacity="0.5"/>
<path d="M9.25032 30C8.94262 32.4615 8.78878 33.8462 8.32724 35.2308C8.32724 35.2308 8.63493 37.5385 8.94262 40H9.71186C10.0195 38.3077 10.3272 36.6154 10.6349 34.9231C9.55801 34.3077 9.25032 32.1538 9.25032 30Z" fill="#989CA7"/>
<path d="M10.7888 35.0769C9.71187 34.4615 9.40418 32.1538 9.40418 30.1538C9.71187 26.6154 9.71187 23.0769 9.71187 19.3846C9.55803 17.5385 9.71187 2.30769 9.25034 0C9.55803 0.769231 9.86572 1.53846 10.3273 2.15385C11.4042 4 15.8657 6.46154 18.0196 15.8462C19.7119 25.5385 14.635 32.4615 10.7888 35.0769Z" fill="white"/>
</svg>
